communes/2114.svg

<?xml version="1.0" encoding="UTF-8" standalone="no"?>
<svg
   xmlns:dc="http://purl.org/dc/elements/1.1/"
   xmlns:cc="http://creativecommons.org/ns#"
   xmlns:rdf="http://www.w3.org/1999/02/22-rdf-syntax-ns#"
   xmlns:svg="http://www.w3.org/2000/svg"
   xmlns="http://www.w3.org/2000/svg"
   xmlns:xlink="http://www.w3.org/1999/xlink"
   xmlns:sodipodi="http://sodipodi.sourceforge.net/DTD/sodipodi-0.dtd"
   xmlns:inkscape="http://www.inkscape.org/namespaces/inkscape"
   height="763"
   width="603"
   version="1.0"
   id="svg20"
   sodipodi:version="0.32"
   inkscape:version="0.43"
   sodipodi:docname="2114.svg">
  <metadata
     id="metadata31">
    <rdf:RDF>
      <cc:Work
         rdf:about="">
        <dc:format>image/svg+xml</dc:format>
        <dc:type
           rdf:resource="http://purl.org/dc/dcmitype/StillImage" />
        <dc:date>07-AUG-2006</dc:date>
        <dc:creator>
          <cc:Agent>
            <dc:title>Jérôme BLUM (wagner51)</dc:title>
          </cc:Agent>
        </dc:creator>
        <cc:license
           rdf:resource="http://creativecommons.org/licenses/GPL/2.0/" />
        <dc:coverage />
        <dc:description>Gabarit pour le Projet:Blasons de WIkipédia</dc:description>
        <dc:subject>
          <rdf:Bag>
            <rdf:li>blason suisse modèle gabarit projet blasons</rdf:li>
          </rdf:Bag>
        </dc:subject>
        <dc:language>fr</dc:language>
        <dc:title>Gabrit d'un blason suisse</dc:title>
      </cc:Work>
      <cc:License
         rdf:about="http://creativecommons.org/licenses/GPL/2.0/">
        <cc:permits
           rdf:resource="http://web.resource.org/cc/Reproduction" />
        <cc:permits
           rdf:resource="http://web.resource.org/cc/Distribution" />
        <cc:requires
           rdf:resource="http://web.resource.org/cc/Notice" />
        <cc:permits
           rdf:resource="http://web.resource.org/cc/DerivativeWorks" />
        <cc:requires
           rdf:resource="http://web.resource.org/cc/ShareAlike" />
        <cc:requires
           rdf:resource="http://web.resource.org/cc/SourceCode" />
      </cc:License>
    </rdf:RDF>
  </metadata>
  <defs
     id="defs29">
    <linearGradient
       id="linearGradient2893">
      <stop
         style="stop-color:#ffffff;stop-opacity:0.3137255;"
         offset="0"
         id="stop2895" />
      <stop
         id="stop2897"
         offset="0.19"
         style="stop-color:#ffffff;stop-opacity:0.25098041;" />
      <stop
         style="stop-color:#6b6b6b;stop-opacity:0.1254902;"
         offset="0.60000002"
         id="stop2901" />
      <stop
         style="stop-color:#000000;stop-opacity:0.1254902;"
         offset="1"
         id="stop2899" />
    </linearGradient>
    <linearGradient
       id="linearGradient2955">
      <stop
         style="stop-color:white;stop-opacity:0;"
         offset="0"
         id="stop2965" />
      <stop
         style="stop-color:black;stop-opacity:0.64583331;"
         offset="1"
         id="stop2959" />
    </linearGradient>
    <radialGradient
       inkscape:collect="always"
       xlink:href="#linearGradient2893"
       id="radialGradient3236"
       gradientUnits="userSpaceOnUse"
       gradientTransform="matrix(1.215027,1.531577e-24,1.464684e-23,1.266667,-839.1924,-490.4894)"
       cx="858.04236"
       cy="579.93323"
       fx="858.04236"
       fy="579.93323"
       r="300" />
    <foreignObject
       requiredExtensions="http://ns.adobe.com/AdobeIllustrator/10.0/"
       x="0"
       y="0"
       width="1"
       height="1"
       id="foreignObject3067" />
    <foreignObject
       requiredExtensions="http://ns.adobe.com/AdobeIllustrator/10.0/"
       x="0"
       y="0"
       width="1"
       height="1"
       id="foreignObject2183" />
    <foreignObject
       requiredExtensions="http://ns.adobe.com/AdobeIllustrator/10.0/"
       x="0"
       y="0"
       width="1"
       height="1"
       id="foreignObject3850" />
  </defs>
  <sodipodi:namedview
     inkscape:window-height="808"
     inkscape:window-width="1152"
     inkscape:pageshadow="2"
     inkscape:pageopacity="0.0"
     guidetolerance="10.0"
     gridtolerance="10.0"
     objecttolerance="10.0"
     borderopacity="1.0"
     bordercolor="#666666"
     pagecolor="#ffffff"
     id="base"
     inkscape:zoom="0.77719528"
     inkscape:cx="430.82905"
     inkscape:cy="425.06469"
     inkscape:window-x="-4"
     inkscape:window-y="-4"
     inkscape:current-layer="layer1"
     showgrid="false"
     showguides="true"
     inkscape:guide-bbox="true"
     inkscape:document-rotation="0" />
  <desc
     id="desc22">Coat of Arms of Canton of Freiburg (Fribourg)</desc>
  <g
     inkscape:groupmode="layer"
     id="layer1"
     inkscape:label="Fond écu"
     style="opacity:1"
     sodipodi:insensitive="true">
    <path
       id="path1337"
       d="M 1.5001513,1.49998 L 1.5001513,460.3679 C 1.5001513,626.6785 135.81471,761.5 301.50014,761.5 C 467.18558,761.5 601.50015,626.6785 601.50015,460.3679 L 601.50015,1.49998 L 1.5001513,1.49998 z "
       style="fill:#ffffff;fill-opacity:1;stroke:#000000;stroke-opacity:1" />
    <path
       style="fill:#e20909;fill-opacity:1;stroke:#000000;stroke-width:3;stroke-miterlimit:4;stroke-dasharray:none;stroke-opacity:1"
       d="M 1.5,1.5 L 1.5,460.375 C 1.5,536.99335 30.020673,606.91417 76.96875,660.0625 L 601,2 L 601.5,1.5625 L 601.5,1.5 L 1.5,1.5 z "
       id="path1899" />
    <path
       style="fill:none;fill-opacity:1;stroke:#000000;stroke-opacity:1"
       d="M 1.5001513,1.49998 L 1.5001513,460.3679 C 1.5001513,626.6785 135.81471,761.5 301.50014,761.5 C 467.18558,761.5 601.50015,626.6785 601.50015,460.3679 L 601.50015,1.49998 L 1.5001513,1.49998 z "
       id="path5889" />
    <path
       style="fill:none;fill-opacity:1;stroke:#000000;stroke-opacity:1"
       d="M 1.5001513,1.49998 L 1.5001513,460.3679 C 1.5001513,626.6785 135.81471,761.5 301.50014,761.5 C 467.18558,761.5 601.50015,626.6785 601.50015,460.3679 L 601.50015,1.49998 L 1.5001513,1.49998 z "
       id="path1488" />
  </g>
  <g
     inkscape:groupmode="layer"
     id="layer2"
     inkscape:label="Meubles"
     style="opacity:1">
    <path
       sodipodi:type="star"
       style="opacity:1;fill:#fcef3c;fill-opacity:1;fill-rule:nonzero;stroke:#000000;stroke-width:3;stroke-linecap:square;stroke-linejoin:miter;stroke-miterlimit:4;stroke-dasharray:none;stroke-dashoffset:0;stroke-opacity:1"
       id="path4135"
       sodipodi:sides="5"
       sodipodi:cx="202.00842"
       sodipodi:cy="48.893761"
       sodipodi:r1="68.24247"
       sodipodi:r2="26.614563"
       sodipodi:arg1="-1.5707963"
       sodipodi:arg2="-0.9424778"
       inkscape:flatsided="false"
       inkscape:rounded="0"
       inkscape:randomized="0"
       d="M 202.00842,-19.348709 L 217.65207,27.362127 L 266.91087,27.80568 L 227.32038,57.118113 L 242.12034,104.10308 L 202.00842,75.508324 L 161.8965,104.10308 L 176.69647,57.118113 L 137.10598,27.805676 L 186.36478,27.362127 L 202.00842,-19.348709 z "
       transform="translate(-108,56)" />
    <path
       transform="translate(192,56)"
       d="M 202.00842,-19.348709 L 217.65207,27.362127 L 266.91087,27.80568 L 227.32038,57.118113 L 242.12034,104.10308 L 202.00842,75.508324 L 161.8965,104.10308 L 176.69647,57.118113 L 137.10598,27.805676 L 186.36478,27.362127 L 202.00842,-19.348709 z "
       inkscape:randomized="0"
       inkscape:rounded="0"
       inkscape:flatsided="false"
       sodipodi:arg2="-0.9424778"
       sodipodi:arg1="-1.5707963"
       sodipodi:r2="26.614563"
       sodipodi:r1="68.24247"
       sodipodi:cy="48.893761"
       sodipodi:cx="202.00842"
       sodipodi:sides="5"
       id="path5883"
       style="opacity:1;fill:#fcef3c;fill-opacity:1;fill-rule:nonzero;stroke:#000000;stroke-width:3;stroke-linecap:square;stroke-linejoin:miter;stroke-miterlimit:4;stroke-dasharray:none;stroke-dashoffset:0;stroke-opacity:1"
       sodipodi:type="star" />
    <path
       transform="translate(42,246)"
       d="M 202.00842,-19.348709 L 217.65207,27.362127 L 266.91087,27.80568 L 227.32038,57.118113 L 242.12034,104.10308 L 202.00842,75.508324 L 161.8965,104.10308 L 176.69647,57.118113 L 137.10598,27.805676 L 186.36478,27.362127 L 202.00842,-19.348709 z "
       inkscape:randomized="0"
       inkscape:rounded="0"
       inkscape:flatsided="false"
       sodipodi:arg2="-0.9424778"
       sodipodi:arg1="-1.5707963"
       sodipodi:r2="26.614563"
       sodipodi:r1="68.24247"
       sodipodi:cy="48.893761"
       sodipodi:cx="202.00842"
       sodipodi:sides="5"
       id="path5885"
       style="opacity:1;fill:#fcef3c;fill-opacity:1;fill-rule:nonzero;stroke:#000000;stroke-width:3;stroke-linecap:square;stroke-linejoin:miter;stroke-miterlimit:4;stroke-dasharray:none;stroke-dashoffset:0;stroke-opacity:1"
       sodipodi:type="star" />
    <path
       sodipodi:type="star"
       style="opacity:1;fill:#fcef3c;fill-opacity:1;fill-rule:nonzero;stroke:#000000;stroke-width:3;stroke-linecap:square;stroke-linejoin:miter;stroke-miterlimit:4;stroke-dasharray:none;stroke-dashoffset:0;stroke-opacity:1"
       id="path5887"
       sodipodi:sides="5"
       sodipodi:cx="202.00842"
       sodipodi:cy="48.893761"
       sodipodi:r1="68.24247"
       sodipodi:r2="26.614563"
       sodipodi:arg1="-1.5707963"
       sodipodi:arg2="-0.9424778"
       inkscape:flatsided="false"
       inkscape:rounded="0"
       inkscape:randomized="0"
       d="M 202.00842,-19.348709 L 217.65207,27.362127 L 266.91087,27.80568 L 227.32038,57.118113 L 242.12034,104.10308 L 202.00842,75.508324 L 161.8965,104.10308 L 176.69647,57.118113 L 137.10598,27.805676 L 186.36478,27.362127 L 202.00842,-19.348709 z "
       transform="translate(-108,436)" />
  </g>
  <g
     inkscape:groupmode="layer"
     id="layer3"
     inkscape:label="Reflet final"
     style="display:inline"
     sodipodi:insensitive="true">
    <path
       style="fill:url(#radialGradient3236);fill-opacity:1"
       d="M 1.5,1.5 L 1.5,460.3679 C 1.5,626.67854 135.81454,761.5 301.49993,761.5 C 467.1854,761.5 601.5,626.67854 601.5,460.3679 L 601.5,1.5 L 1.5,1.5 z "
       id="path2346" />
  </g>
  <g
     inkscape:groupmode="layer"
     id="layer4"
     inkscape:label="Contour final"
     style="display:inline"
     sodipodi:insensitive="true">
    <path
       style="fill:none;fill-opacity:1;stroke:#000000;stroke-width:3;stroke-miterlimit:4;stroke-dasharray:none;stroke-opacity:1"
       d="M 1.5,1.5 L 1.5,460.36794 C 1.5,626.67854 135.81454,761.5 301.49993,761.5 C 467.1854,761.5 601.5,626.67854 601.5,460.36794 L 601.5,1.5 L 1.5,1.5 z "
       id="path3239" />
  </g>
</svg>

<?xml version="1.0" encoding="UTF-8"?>
<svg version="1.0" viewBox="0 0 603 763" xmlns="http://www.w3.org/2000/svg" xmlns:cc="http://creativecommons.org/ns#" xmlns:dc="http://purl.org/dc/elements/1.1/" xmlns:rdf="http://www.w3.org/1999/02/22-rdf-syntax-ns#" xmlns:xlink="http://www.w3.org/1999/xlink">
<metadata>
<rdf:RDF>
<cc:Work rdf:about="">
<dc:format>image/svg+xml</dc:format>
<dc:type rdf:resource="http://purl.org/dc/dcmitype/StillImage"/>
<dc:date>07-AUG-2006</dc:date>
<dc:creator>
<cc:Agent>
<dc:title>Jérôme BLUM (wagner51)</dc:title>
</cc:Agent>
</dc:creator>
<cc:license rdf:resource="http://creativecommons.org/licenses/GPL/2.0/"/>
<dc:coverage/>
<dc:description>Gabarit pour le Projet:Blasons de WIkipédia</dc:description>
<dc:subject>
<rdf:Bag>
<rdf:li>blason suisse modèle gabarit projet blasons</rdf:li>
</rdf:Bag>
</dc:subject>
<dc:language>fr</dc:language>
<dc:title>Gabrit d'un blason suisse</dc:title>
</cc:Work>
<cc:License rdf:about="http://creativecommons.org/licenses/GPL/2.0/">
<cc:permits rdf:resource="http://web.resource.org/cc/Reproduction"/>
<cc:permits rdf:resource="http://web.resource.org/cc/Distribution"/>
<cc:requires rdf:resource="http://web.resource.org/cc/Notice"/>
<cc:permits rdf:resource="http://web.resource.org/cc/DerivativeWorks"/>
<cc:requires rdf:resource="http://web.resource.org/cc/ShareAlike"/>
<cc:requires rdf:resource="http://web.resource.org/cc/SourceCode"/>
</cc:License>
</rdf:RDF>
</metadata>
<defs>
<radialGradient id="a" cx="858.04" cy="579.93" r="300" gradientTransform="matrix(1.215 1.5316e-24 1.4647e-23 1.2667 -839.19 -490.49)" gradientUnits="userSpaceOnUse">
<stop stop-color="#fff" stop-opacity=".31373" offset="0"/>
<stop stop-color="#fff" stop-opacity=".25098" offset=".19"/>
<stop stop-color="#6b6b6b" stop-opacity=".12549" offset=".6"/>
<stop stop-opacity=".12549" offset="1"/>
</radialGradient>
</defs>
<desc>Coat of Arms of Canton of Freiburg (Fribourg)</desc>
<g stroke="#000">
<path d="m1.5002 1.5v458.87c0 166.31 134.31 301.13 300 301.13 165.69 0 300-134.82 300-301.13v-458.87h-600z" fill="#fff"/>
<path d="m1.5 1.5v458.88c0 76.618 28.521 146.54 75.469 199.69l524.03-658.06 0.5-0.4375v-0.0625h-600z" fill="#e20909" stroke-width="3"/>
<path d="m1.5002 1.5v458.87c0 166.31 134.31 301.13 300 301.13 165.69 0 300-134.82 300-301.13v-458.87h-600z" fill="none"/>
<path d="m1.5002 1.5v458.87c0 166.31 134.31 301.13 300 301.13 165.69 0 300-134.82 300-301.13v-458.87h-600z" fill="none"/>
<path transform="translate(-108,56)" d="m202.01-19.349 15.644 46.711 49.259 0.44355-39.59 29.312 14.8 46.985-40.112-28.595-40.112 28.595 14.8-46.985-39.59-29.312 49.259-0.44355 15.644-46.711z" fill="#fcef3c" stroke-linecap="square" stroke-width="3"/>
<path transform="translate(192,56)" d="m202.01-19.349 15.644 46.711 49.259 0.44355-39.59 29.312 14.8 46.985-40.112-28.595-40.112 28.595 14.8-46.985-39.59-29.312 49.259-0.44355 15.644-46.711z" fill="#fcef3c" stroke-linecap="square" stroke-width="3"/>
<path transform="translate(42,246)" d="m202.01-19.349 15.644 46.711 49.259 0.44355-39.59 29.312 14.8 46.985-40.112-28.595-40.112 28.595 14.8-46.985-39.59-29.312 49.259-0.44355 15.644-46.711z" fill="#fcef3c" stroke-linecap="square" stroke-width="3"/>
<path transform="translate(-108,436)" d="m202.01-19.349 15.644 46.711 49.259 0.44355-39.59 29.312 14.8 46.985-40.112-28.595-40.112 28.595 14.8-46.985-39.59-29.312 49.259-0.44355 15.644-46.711z" fill="#fcef3c" stroke-linecap="square" stroke-width="3"/>
</g>
<g>
<path d="m1.5 1.5v458.87c0 166.31 134.31 301.13 300 301.13 165.69 0 300-134.82 300-301.13v-458.87h-600z" fill="url(#a)"/>
<path d="m1.5 1.5v458.87c0 166.31 134.31 301.13 300 301.13 165.69 0 300-134.82 300-301.13v-458.87h-600z" fill="none" stroke="#000" stroke-width="3"/>
</g>
</svg>
